X: 30767
T: Orphan, The
R: jig
M: 6/8
K: Edorian
B,|EFE EDB,|GFG AGA|BGB AFA|GEF EDB,|
A,2 A, EDB,|GFG AGA|BGB AFD|1 GEE E2:|2 GEE E3||
|:ege dBA|GAB dBd|edB AGA|BGE DB,A,|
B,EE EDB,|G2G AGA|BGB AFA|GEE E3:|

